src/icons/cd.svg

<svg viewBox="0 0 24 24" fill="none" xmlns="http://www.w3.org/2000/svg">
<path fill-rule="evenodd" clip-rule="evenodd" d="M13.949 5.78923C12.9419 6.38844 12.2217 7.35593 11.9209 8.5138L11.6441 9.57917L13.8009 10.1751L14.0776 9.10972C14.3807 7.94527 15.5455 7.25265 16.6748 7.56441C17.8044 7.87668 18.4773 9.07772 18.1749 10.242C17.8724 11.4061 16.708 12.0994 15.5777 11.7873L15.5539 11.7807L9.3236 10.0592C8.20022 9.74865 7.02709 9.90768 6.02 10.5069C5.01306 11.106 4.29285 12.0735 3.99212 13.2314C3.69115 14.3892 3.84576 15.5984 4.42739 16.6366C5.00902 17.6748 5.94788 18.4174 7.07133 18.7277C8.19471 19.0382 9.36785 18.8792 10.3748 18.2801C11.3819 17.6809 12.1021 16.7134 12.4028 15.5555L12.6797 14.4901L10.5229 13.8942L10.2461 14.9596C9.94352 16.1242 8.77872 16.8168 7.64892 16.5049C6.51935 16.1926 5.84649 14.9916 6.14885 13.8273C6.30025 13.2452 6.66713 12.781 7.13744 12.5011C7.60764 12.2214 8.18114 12.1261 8.74603 12.282L15.0001 14.0101C16.1235 14.3206 17.2967 14.1616 18.3037 13.5624C19.3107 12.9633 20.0309 11.9958 20.3316 10.8379C20.6326 9.68011 20.478 8.4709 19.8963 7.4327C19.3147 6.39451 18.3759 5.65191 17.2524 5.34162C16.129 5.03109 14.9559 5.19011 13.949 5.78923Z" fill="black"/>
</svg>

<svg viewBox="0 0 24 24" fill="currentcolor" xmlns="http://www.w3.org/2000/svg"><path fill-rule="evenodd" clip-rule="evenodd" d="M13.949 5.79a4.44 4.44 0 0 0-2.028 2.724l-.277 1.065 2.157.596.277-1.065c.303-1.165 1.468-1.857 2.597-1.546 1.13.313 1.802 1.514 1.5 2.678-.303 1.164-1.467 1.857-2.597 1.545l-.024-.006-6.23-1.722a4.211 4.211 0 0 0-3.304.448 4.44 4.44 0 0 0-2.028 2.724 4.578 4.578 0 0 0 .435 3.406 4.346 4.346 0 0 0 2.644 2.09 4.212 4.212 0 0 0 3.304-.447 4.44 4.44 0 0 0 2.028-2.725l.277-1.065-2.157-.596-.277 1.066c-.302 1.164-1.467 1.857-2.597 1.545-1.13-.312-1.803-1.513-1.5-2.678a2.171 2.171 0 0 1 .988-1.326 2.06 2.06 0 0 1 1.609-.219L15 14.01a4.212 4.212 0 0 0 3.304-.448 4.44 4.44 0 0 0 2.028-2.724 4.577 4.577 0 0 0-.436-3.405 4.346 4.346 0 0 0-2.644-2.091 4.211 4.211 0 0 0-3.303.447z" fill="#000"/></svg>
